images/UK_traffic_sign_554.2.svg

<svg xmlns="http://www.w3.org/2000/svg" width="681" height="602.12" fill-rule="evenodd"><path d="m46.019 601.088-38.971-67.5L301.529 23.532h77.942l294.481 510.056-38.971 67.5" fill="#e31017"/><circle cx="340.5" cy="46.032" r="45" fill="#e31017"/><circle cx="634.981" cy="556.088" r="45" fill="#e31017"/><circle cx="46.019" cy="556.088" r="45" fill="#e31017"/><path d="M72 541.088 340.5 76.032 609 541.088" fill="#fff"/><path d="M325.5 509.428v-246.68l15-8.66 15 8.66v246.68l-15 8.66"/><path d="m241.185 460.748 213.63-123.34v-17.32l-15-8.66-213.63 123.34v17.32"/><path d="m439.815 460.748-213.63-123.34v-17.32l15-8.66 213.63 123.34v17.32"/><path d="m340.5 450.767 43.301 25v17.321l-15 8.66-28.301-16.34-28.301 16.34-15-8.66v-17.321M340.5 286.768l28.301-16.34 15 8.66v17.321l-43.301 25-43.301-25v-17.321l15-8.66m-57.713 165.32-28.301-16.339v-17.321l15-8.66 43.301 25v49.999l-15 8.66-15-8.66m172.028-32.679 28.301-16.339v-17.321l-15-8.66-43.301 25v49.999l15 8.66 15-8.67M254.486 336.428v-32.679l15-8.66 15 8.66v49.999l-43.301 25-15-8.66v-17.321m200.329-16.339v-32.679l-15-8.66-15 8.66v49.999l43.301 25 15-8.66v-17.321"/></svg>

<?xml version="1.0"?>
<svg xmlns="http://www.w3.org/2000/svg" width="681" height="602.12" fill-rule="evenodd">
<path d="M46.019,601.088 7.048,533.588 301.529,23.532 379.471,23.532 673.952,533.588 634.981,601.088" fill="#e31017" stroke="none"/>
<circle cx="340.5" cy="46.032" r="45" fill="#e31017" stroke="none"/>
<circle cx="634.981" cy="556.088" r="45" fill="#e31017" stroke="none"/>
<circle cx="46.019" cy="556.088" r="45" fill="#e31017" stroke="none"/>
<path d="M72,541.088 340.5,76.032 609,541.088" fill="#fff" stroke="none"/>
<path d="M325.5,509.428 325.5,262.748 340.5,254.088 355.5,262.748 355.5,509.428 340.5,518.088" fill="#000" stroke="none"/>
<path d="M241.185,460.748 454.815,337.408 454.815,320.088 439.815,311.428 226.185,434.768 226.185,452.088" fill="#000" stroke="none"/>
<path d="M439.815,460.748 226.185,337.408 226.185,320.088 241.185,311.428 454.815,434.768 454.815,452.088" fill="#000" stroke="none"/>
<path d="M340.5,450.767 383.801,475.767 383.801,493.088 368.801,501.748 340.5,485.408 312.199,501.748 297.199,493.088 297.199,475.767 
M340.5,286.768 368.801,270.428 383.801,279.088 383.801,296.409 340.5,321.409 297.199,296.409 297.199,279.088 312.199,270.428
M254.486,435.748 226.185,419.409 226.185,402.088 241.185,393.428 284.486,418.428 284.486,468.427 269.486,477.087 254.486,468.427
M426.514,435.748 454.815,419.409 454.815,402.088 439.815,393.428 396.514,418.428 396.514,468.427 411.514,477.087 426.514,468.417
M254.486,336.428 254.486,303.749 269.486,295.089 284.486,303.749 284.486,353.748 241.185,378.748 226.185,370.088 226.185,352.767
M426.514,336.428 426.514,303.749 411.514,295.089 396.514,303.749 396.514,353.748 439.815,378.748 454.815,370.088 454.815,352.767" fill="#000" stroke="none"/>
</svg>
